X: 2155
T: SIR ARCHd DUNBAR
Q: "Strathspey."
R: Strathspey.
%R: strathspey
B: James Kerr "Merry Melodies" v.2 p.18 #155
Z: 2016 John Chambers <jc:trillian.mit.edu>
M: C
L: 1/16
%%slurgraces yes
%%graceslurs yes
K: D
uF2 |\
DDD2 (F3D) vG3vEu=C3uE | DDD2 (F3D) vA3vDuF3uD |\
A3DF3D G3E=C3E | (Dd3) (A3F) DDD2 D2 ::\
uf2 |\
vdd3f3ud vg3veu=c3ue |
vdd3f3ud va3vduf3ud |\
[1 a3df3d {f}g3e=c3e | Dd3 A3F DDD2 D2 :|\
[2 a3df3d gfed =ce3 | db3 a3uf ddd2 d2 |]
